src/images/favicon.svg

<svg width="60" height="60" viewBox="0 0 60 54" fill="none" xmlns="http://www.w3.org/2000/svg">
<path fill-rule="evenodd" clip-rule="evenodd" d="M44.8559 0.524425C70.4527 5.92736 56.6032 45.9582 43.2484 52.3435C26.5549 60.4479 -9.18167 36.2575 2.19466 16.3648C8.2538 5.92736 32.614 -2.17704 44.8559 0.524425ZM38.4258 9.85677H33.9742C27.2968 9.85677 21.8559 15.1369 21.8559 21.7678V41.4148H22.1032C24.8237 41.292 27.0495 39.0817 27.0495 36.2575V21.7678C27.0495 18.084 30.1409 15.0141 33.9742 15.0141H38.4258V9.85677ZM33.4796 24.2237C30.7591 24.2237 28.657 26.1884 28.657 26.1884C28.657 26.1884 30.8828 28.0303 33.6032 28.0303C36.3237 28.0303 38.4258 26.0656 38.4258 26.0656C38.4258 26.0656 36.2 24.2237 33.4796 24.2237Z" fill="#ffffff"/>
</svg>

<?xml version="1.0" encoding="UTF-8"?>
<svg width="60" height="60" fill="none" viewBox="0 0 60 54" xmlns="http://www.w3.org/2000/svg">
<path d="m44.856 0.52442c25.597 5.4029 11.747 45.434-1.6075 51.819-16.694 8.1044-52.43-16.086-41.054-35.979 6.0591-10.437 30.419-18.542 42.661-15.84zm-6.4301 9.3323h-4.4516c-6.6774 0-12.118 5.2801-12.118 11.911v19.647h0.2473c2.7205-0.1228 4.9463-2.3331 4.9463-5.1573v-14.49c0-3.6838 3.0914-6.7537 6.9247-6.7537h4.4516v-5.1573zm-4.9462 14.367c-2.7205 0-4.8226 1.9647-4.8226 1.9647s2.2258 1.8419 4.9462 1.8419c2.7205 0 4.8226-1.9647 4.8226-1.9647s-2.2258-1.8419-4.9462-1.8419z" clip-rule="evenodd" fill="#fff" fill-rule="evenodd"/>
</svg>
